!!!COM:	Bach, Johann Sebastian
!!!CDT:	1685/02/21/-1750/07/28/
!!!OTL@@DE:	In dich hab ich gehoffet, Herr
!!!SCT:	BWV 248/46
!!!PC#:	77
!!!AGN:	chorale
**kern	**kern	**kern	**kern
*ICvox	*ICvox	*ICvox	*ICvox
*Ibass	*Itenor	*Ialto	*Isoprn
*I"Bass	*I"Tenor	*I"Alto	*I"Soprano
*clefF4	*clefGv2	*clefG2	*clefG2
*k[f#c#g#]	*k[f#c#g#]	*k[f#c#g#]	*k[f#c#g#]
*A:	*A:	*A:	*A:
*M4/4	*M4/4	*M4/4	*M4/4
*met(c)	*met(c)	*met(c)	*met(c)
*MM100	*MM100	*MM100	*MM100
4F#	8c#L	4f#	4a
.	8dJ	.	.
=1	=1	=1	=1
4c#	4e	8eL	4a
.	.	8f#J	.
8BL	8dL	8g#L	4ee
8AJ	8c#J	8aJ	.
4G#	4B	4b	4ee
[4A	4A	4e	8ddL
.	.	.	8cc#J
=2	=2	=2	=2
8AL]	4B	4d#	4b
8GJ	.	.	.
8F#L	8AL	4e	4cc#
8EJ	8GnXJ	.	.
8F#L	4A	8dL	8ddL
8DJ	.	8aJ	8cc#J
4E	8eL	4g#	4b
.	8dJ	.	.
=3	=3	=3	=3
2AA;	2c#;	2e;	2a;
4r	4ry	4ry	4r
4D	4A	4f#	4a
=4	=4	=4	=4
8D#	4A	4f#	4b
4E	.	.	.
.	4G#	8eL	4cc#
[8E#	.	8c#J	.
8E#L]	8BL	8g#L	4dd
8F#J	8AJ	8f#J	.
8G#L	4B	8enXL	4b
8AJ	.	8d#J	.
=5	=5	=5	=5
8G#L	8B	16eLL	4ee
.	.	16f#J	.
8EJ	4e	8g#J	.
4B	.	8aL	4ff#
.	8d#	8f#J	.
4E;	4e;	4g#;	4ee;
8AL	4e	4a	4cc#
8G#J	.	.	.
=6	=6	=6	=6
8F#L	4f#	4a	8cc#L
8EJ	.	.	8ddJ
8DL	4f#	4a#	4ee
8C#J	.	.	.
4BB	4f#	8bL	4dd
.	.	8aJ	.
8EL	4e	8g#L	8cc#L
8DJ	.	8f#J	8bJ
=7	=7	=7	=7
8C#L	8eL	8eL	8aL
8BBJ	8dJ	16f#L	8bJ
.	.	16g#JJ	.
4AA	8c#L	8aL	4cc#
.	8d#J	8f#J	.
4E;	4e;	4g#;	4b;
4AA	4e	8aL	4cc#
.	.	8g#J	.
=8	=8	=8	=8
8DnXL	8dnXL	4.f#	4a
8EJ	8c#J	.	.
8DL	8dL	.	8bL
8C#J	8eJ	16g#LL	8cc#J
.	.	16a#JJ	.
4BB;	4f#;	4b;	4dd;
4F#	8f#L	4a#	4cc#
.	8eJ	.	.
=9	=9	=9	=9
8GL	4d	8bL	4b
8F#J	.	8anXJ	.
4E	4e	4g	4cc#
4D;	4A;	4f#;	4dd;
4AA	4A	8eL	4cc#
.	.	[8aJ	.
=10	=10	=10	=10
[2E	4B	8a]	4b
.	.	4g#	.
.	8c#L	.	4a
.	8d#J	8f#	.
8EL]	[2e	8g#L	4.ee
8F#	.	8aJ	.
8G#	.	[4b	.
8EJ	.	.	8dd
=11	=11	=11	=11
8AL	8eL]	8bL]	4cc#
8G#	8c#J	8eJ	.
8F#	8AL	2a	8ddnXL
8EJ	8c#J	.	8cc#J
8DL	8f#L	.	2b
8BBJ	8dnXJ	.	.
4E	8BL	4g#	.
.	8eJ	.	.
=12	=12	=12	=12
2.AA;	2.c#;	2.e;	2.a;
==	==	==	==
*-	*-	*-	*-
!!!hum2abc: -Q ''
!!!title: @{PC#}. @{OTL@@DE}
!!!YOR1: 371 vierstimmige Choralges&auml;nge von Johann Sebastian Bach, 
!!!YOR2: 4th ed. by Alfred D&ouml;rffel (Leipzig: Breitkopf und H&auml;rtel, 
!!!YOR2: c.1875). 178 pp. Plate "V.A.10".  reprint: J.S. Bach, 371 Four-Part 
!!!YOR4: Chorales (New York: Associated Music Publishers, Inc., c.1940).
!!!SMS: B&H, 4th ed, Alfred D&ouml;rffel, c.1875, plate V.A.10
!!!EED:  Craig Stuart Sapp
!!!EEV:  2009/05/22
